SFASUI/public/images/icon-button.svg

<svg width="16" height="16" viewBox="0 0 16 16" fill="none" xmlns="http://www.w3.org/2000/svg">
<g clip-path="url(#clip0_602_7246)">
<g clip-path="url(#clip1_602_7246)">
<path d="M4.3096 8.95519L9.9252 3.20341C9.98536 3.14179 10.4667 2.64878 11.2288 2.38173C12.2918 2.03251 13.3748 2.3201 14.2372 3.20341C15.1196 4.08672 15.3803 5.17545 15.0394 6.26418C14.7987 7.04478 14.2973 7.57888 14.2372 7.6405L8.20041 13.8237C7.15751 14.8919 4.55027 16.2682 2.14358 13.8237C-0.243047 11.3792 1.12074 8.68815 2.14358 7.6405L8.62158 0.984867C8.86224 0.738362 9.2433 0.738362 9.48397 0.984867C9.72464 1.23137 9.72464 1.62167 9.48397 1.86818L3.02603 8.52381C2.92576 8.60598 0.900129 10.7629 3.02603 12.9404C5.09177 15.0562 7.1174 13.1663 7.33801 12.9404L13.3748 6.73665C13.3748 6.73665 13.7157 6.38743 13.8762 5.89442C14.0767 5.23708 13.9363 4.6619 13.3748 4.08672C12.1714 2.8542 11.0082 3.8813 10.7876 4.08672L5.17199 9.81796C4.97144 10.0234 4.83105 10.3726 5.17199 10.7218C5.51294 11.071 5.83383 10.9067 6.03439 10.7218L9.9252 6.73665C10.1659 6.51069 10.567 6.51069 10.7876 6.73665C11.0283 6.98315 11.0283 7.394 10.7876 7.6405L6.89679 11.6051C6.35528 12.1392 5.25222 12.5706 4.3096 11.6051C3.34692 10.6396 3.76809 9.48929 4.3096 8.95519Z" fill="#4B3A5A"/>
</g>
</g>
<defs>
<clipPath id="clip0_602_7246">
<rect width="16" height="16" fill="white"/>
</clipPath>
<clipPath id="clip1_602_7246">
<rect width="16" height="16" fill="white"/>
</clipPath>
</defs>
</svg>

<svg width="16" height="16" fill="none" xmlns="http://www.w3.org/2000/svg"><g clip-path="url(#a)"><g clip-path="url(#b)"><path d="m4.31 8.955 5.615-5.752c.06-.061.542-.554 1.304-.821 1.063-.35 2.146-.062 3.008.821.883.884 1.143 1.972.802 3.061a3.693 3.693 0 0 1-.802 1.377L8.2 13.823c-1.042 1.068-3.65 2.444-6.056 0-2.387-2.445-1.023-5.136 0-6.183L8.622.985a.595.595 0 0 1 .862 0 .63.63 0 0 1 0 .883L3.026 8.524c-.1.082-2.126 2.239 0 4.416 2.066 2.116 4.091.226 4.312 0l6.037-6.203s.34-.35.501-.843c.2-.657.06-1.232-.501-1.807-1.204-1.233-2.367-.206-2.587 0L5.172 9.818c-.2.205-.34.555 0 .904s.662.185.862 0l3.891-3.985c.24-.226.642-.226.863 0 .24.246.24.657 0 .904l-3.891 3.964c-.542.534-1.645.966-2.587 0-.963-.965-.542-2.116 0-2.65Z" fill="#4B3A5A"/></g></g><defs><clipPath id="a"><path fill="#fff" d="M0 0h16v16H0z"/></clipPath><clipPath id="b"><path fill="#fff" d="M0 0h16v16H0z"/></clipPath></defs></svg>
